X: 4
T: The Cuil Aodha
R: jig
M: 6/8
L: 1/8
K: Amaj
|: e |afe dBe | ABA c2 d | edc dBA | GEE dBG |
ABA AGA | B^AB g=ab | age dBe |[1 ABA A2 :|[2 ABA Ace ||
|: a2 a aga | bef gab | age d2 e | cBA GAB |
a3 aga | bef gab | age dBe |[1 ABA A2 e :|[2 ABA A2 |]


Tune 825	Setting 825

